src/public/favicon.svg

<svg width="32" height="32" viewBox="0 0 32 32" fill="none" xmlns="http://www.w3.org/2000/svg">
<g clip-path="url(#clip0_3646_46141)">
<path d="M15.9592 28.1615L15.6749 28.1499C12.0908 28.064 8.68225 26.5583 6.17926 23.9552C3.67626 21.3521 2.27776 17.8586 2.28322 14.2227C2.28322 6.53983 8.43611 0.2883 15.9975 0.2883C23.559 0.2883 29.7147 6.53983 29.7147 14.2227C29.7147 17.3233 28.6217 20.3921 26.467 23.3456C25.0701 25.2299 23.4206 26.9071 21.5663 28.3287C21.0546 28.7279 20.5244 29.1056 19.9943 29.453C18.7181 30.2879 17.3671 30.9988 15.9592 31.5762V28.1615Z" fill="#262541"/>
<path d="M15.9984 0.576577C19.5627 0.583829 22.9787 2.0246 25.497 4.58284C28.0153 7.14108 29.4301 10.6079 29.4313 14.2227C29.4313 17.2598 28.3567 20.2768 26.239 23.1741C24.8588 25.037 23.2284 26.6949 21.3951 28.0995C20.8891 28.493 20.3661 28.8677 19.8402 29.2108C18.6985 29.959 17.4954 30.6062 16.2443 31.1452V28.431V27.876L15.6885 27.8631C12.1773 27.7805 8.83763 26.3065 6.38516 23.7568C3.93269 21.2071 2.56255 17.7846 2.56832 14.2227C2.56832 6.69838 8.5933 0.576577 15.9984 0.576577ZM15.9984 0C12.3111 0.005978 8.7746 1.48456 6.15445 4.11561C3.5343 6.74666 2.0414 10.3184 1.99898 14.0576C1.95655 17.7968 3.36802 21.4025 5.92779 24.094C8.48756 26.7855 11.9896 28.3462 15.6757 28.4382V32C17.2411 31.3896 18.74 30.6167 20.1486 29.6937C20.6944 29.3381 21.225 28.959 21.7405 28.5564C23.6144 27.115 25.2823 25.4171 26.6966 23.5114C28.6765 20.8043 29.9998 17.649 29.9998 14.2227C30.0015 12.3564 29.6406 10.5081 28.9379 8.78322C28.2351 7.05838 27.2042 5.49082 25.904 4.17009C24.6038 2.84935 23.0598 1.8013 21.3602 1.08579C19.6606 0.370277 17.8386 0.00132444 15.9984 0V0Z" fill="white"/>
<path fill-rule="evenodd" clip-rule="evenodd" d="M15.9995 6.05117C11.5565 6.05117 7.9548 9.70388 7.9548 14.2097C7.9548 18.7156 11.5565 22.3683 15.9995 22.3683C20.4424 22.3683 24.0441 18.7156 24.0441 14.2097C24.0441 9.70388 20.4424 6.05117 15.9995 6.05117ZM7.24414 14.2097C7.24414 9.30583 11.164 5.33044 15.9995 5.33044C20.8349 5.33044 24.7548 9.30583 24.7548 14.2097C24.7548 19.1136 20.8349 23.089 15.9995 23.089C11.164 23.089 7.24414 19.1136 7.24414 14.2097Z" fill="white"/>
<path d="M20.0821 10.955C19.2669 9.90317 18.0873 9.2058 16.7832 9.0047V5.86235L19.2933 4.43677C20.5529 4.87079 21.7152 5.55375 22.7129 6.44614C22.73 7.42536 22.7461 8.40554 22.7613 9.38668L20.0821 10.955Z" fill="white"/>
<path d="M19.3194 4.75676C20.4586 5.1665 21.5134 5.78614 22.4306 6.5845C22.4448 7.46474 22.4591 8.34546 22.4733 9.22667L20.1466 10.5903C19.3506 9.64849 18.2661 9.00488 17.0666 8.76252V6.03099L19.3194 4.75676ZM19.2625 4.12829L16.498 5.69369V9.25982C17.1946 9.33109 17.868 9.55299 18.4729 9.91055C19.0778 10.2681 19.6 10.753 20.0044 11.3326L23.0475 9.55099C23.0304 8.47279 23.0129 7.39459 22.9949 6.31639L22.9878 6.30775C21.9108 5.32664 20.6447 4.58302 19.2696 4.12396L19.2625 4.12829Z" fill="white"/>
<path d="M20.8242 16.1513C21.3043 14.9214 21.3114 13.5535 20.8441 12.3186L23.5375 10.7402L25.9893 12.2133C26.1236 12.8947 26.1884 13.5884 26.1826 14.2832C26.1786 14.9441 26.1115 15.603 25.9822 16.2508L23.5091 17.7297L20.8242 16.1513Z" fill="white"/>
<path d="M23.5363 11.0746L25.7365 12.3964C25.8495 13.0187 25.9042 13.6505 25.9 14.2832C25.8965 14.8825 25.8394 15.4803 25.7294 16.0692L25.1993 16.3848L24.463 16.8173L24.0864 17.0436L23.5093 17.3866L21.1769 16.0187C21.5661 14.8614 21.5701 13.6066 21.1883 12.4468L23.5321 11.0746M23.5321 10.4057L20.4862 12.1946C20.7662 12.8377 20.9091 13.5335 20.9054 14.2365C20.9017 14.9395 20.7516 15.6338 20.4648 16.2739L23.5107 18.0584L24.7501 17.3189L26.234 16.4324C26.5422 14.981 26.5451 13.48 26.2425 12.0274L23.542 10.4029L23.5321 10.4057Z" fill="white"/>
<path d="M16.7832 22.5528V19.4119C18.0699 19.2147 19.2366 18.5346 20.0522 17.5063L22.7385 19.0789L22.7115 20.3762L22.6788 22.0079C21.6906 22.8821 20.5441 23.5528 19.3032 23.9827L16.7832 22.5528Z" fill="white"/>
<path d="M20.1096 17.8739L22.4448 19.2404L22.4349 19.6728L22.4207 20.3647C22.4207 20.565 22.4107 20.8951 22.4036 21.2296C22.4036 21.4559 22.3951 21.6836 22.3908 21.871C21.948 22.2521 21.4723 22.5922 20.9695 22.8872C20.4444 23.1978 19.892 23.4584 19.3194 23.6656L18.1624 23.0069L17.0666 22.3841V19.6541C18.2466 19.4169 19.3164 18.7911 20.1096 17.8739M19.9675 17.1272C19.5629 17.6945 19.0446 18.1686 18.4467 18.5186C17.8488 18.8686 17.1848 19.0866 16.498 19.1582V22.7229L19.2682 24.2969C20.6304 23.8413 21.8851 23.1052 22.9537 22.1348C22.9622 21.7283 22.9807 20.7841 22.9892 20.3777C22.9963 20.049 23.0105 19.3687 23.0205 18.9088L19.9718 17.1243L19.9675 17.1272Z" fill="white"/>
<path d="M12.7104 23.987C11.4713 23.5598 10.3258 22.8925 9.33757 22.0223L9.30488 20.3892C9.29635 20.013 9.2864 19.5243 9.2793 19.0919L11.9627 17.5164C12.7799 18.5417 13.9463 19.219 15.2318 19.4148V22.5528L12.7104 23.987Z" fill="white"/>
<path d="M11.9002 17.8868C12.6977 18.8008 13.7695 19.4233 14.9504 19.6584V22.3841L12.6762 23.6713C11.5569 23.2691 10.5187 22.6645 9.61188 21.8868C9.61188 21.6937 9.61188 21.4832 9.60051 21.2728C9.59341 20.96 9.58772 20.6443 9.58203 20.3805C9.58203 20.0548 9.5664 19.6425 9.55929 19.2533L11.8931 17.8868M12.0352 17.1416L8.99219 18.9247C9.00072 19.3989 9.01209 19.9697 9.02061 20.3949C9.03056 20.9124 9.0462 21.6389 9.05615 22.1549C9.59996 22.6463 10.1936 23.0777 10.8271 23.4421C11.4338 23.7963 12.0749 24.0862 12.7402 24.307L15.5189 22.7301V19.1596C14.831 19.0913 14.165 18.8762 13.5649 18.5284C12.9647 18.1806 12.4439 17.708 12.0367 17.1416H12.0352Z" fill="white"/>
<path d="M6.01452 16.2537C5.75278 14.9193 5.75037 13.5458 6.00741 12.2105L7.45005 11.3456L8.47056 10.7315L11.1597 12.3027C10.6848 13.5472 10.6919 14.9278 11.1796 16.1672L8.49898 17.7297L6.01452 16.2537Z" fill="white"/>
<path d="M8.47271 11.0616L10.8122 12.4324C10.4243 13.6024 10.4303 14.8699 10.8293 16.036L8.50113 17.3996L7.42946 16.7596L6.26397 16.0721C6.13899 15.3936 6.08326 14.7038 6.09768 14.0137C6.11052 13.471 6.16613 12.9301 6.26397 12.3964L7.59575 11.595L8.47413 11.0659M8.47413 10.3971C7.56875 10.942 6.66052 11.4868 5.75798 12.0317C5.46064 13.4868 5.46354 14.9886 5.76651 16.4425L8.50255 18.0742L11.5399 16.2883C11.2497 15.644 11.098 14.9444 11.0951 14.2361C11.0921 13.5278 11.238 12.8269 11.5229 12.1802L8.46986 10.3928L8.47413 10.3971Z" fill="white"/>
<path d="M9.24805 9.36936C9.24805 9.36936 9.26652 8.22486 9.26937 8.06486C9.26937 7.71891 9.28927 6.87279 9.29637 6.43026C10.2962 5.54162 11.46 4.86304 12.7203 4.43387L15.2361 5.86234V9.0018C13.9298 9.19749 12.7466 9.89208 11.9287 10.9434L9.24805 9.36936Z" fill="white"/>
<path d="M12.6924 4.7481L13.8551 5.40828L14.9509 6.03242V8.75819C13.7509 8.9956 12.664 9.63405 11.8638 10.5715L9.53284 9.2108C9.53284 9.07819 9.53284 8.94125 9.53284 8.8072C9.53284 8.51891 9.54137 8.23062 9.54421 8.07783C9.54421 7.76215 9.56269 7.03134 9.56979 6.56864C10.4896 5.76958 11.5487 5.15211 12.6924 4.7481M12.7507 4.11963C11.3678 4.57325 10.095 5.3179 9.01548 6.30485C9.01548 6.68828 8.99416 7.68287 8.98705 8.0663C8.98705 8.37332 8.97 9.0753 8.96289 9.53945L12.0045 11.3196C12.4109 10.7409 12.9349 10.2573 13.5412 9.90142C14.1476 9.54559 14.8222 9.32581 15.5194 9.25693V5.69368L12.7507 4.11963Z" fill="white"/>
</g>
<defs>
<clipPath id="clip0_3646_46141">
<rect width="28" height="32" fill="white" transform="translate(2)"/>
</clipPath>
</defs>
</svg>

<svg fill="none" viewBox="0 0 32 32"><g clip-path="url(#clip0_3646_46141)"><path fill="#262541" d="M15.96 28.162l-.285-.012a13.626 13.626 0 01-9.496-4.195 14.013 14.013 0 01-3.896-9.732C2.283 6.54 8.436.288 15.998.288c7.561 0 13.717 6.252 13.717 13.935 0 3.1-1.093 6.17-3.248 9.123a25.15 25.15 0 01-4.9 4.983 24.016 24.016 0 01-5.607 3.247v-3.415z"/><path fill="#fff" d="M15.998.577a13.366 13.366 0 019.499 4.006 13.75 13.75 0 013.934 9.64c0 3.037-1.074 6.054-3.192 8.951a24.807 24.807 0 01-4.844 4.925 23.587 23.587 0 01-5.15 3.046v-3.269l-.557-.013a13.344 13.344 0 01-9.303-4.106 13.723 13.723 0 01-3.817-9.534C2.568 6.698 8.593.577 15.998.577zm0-.577a13.923 13.923 0 00-9.844 4.116A14.32 14.32 0 002 14.058a14.33 14.33 0 003.929 10.036 13.933 13.933 0 009.748 4.344V32a24.206 24.206 0 006.065-3.444 25.644 25.644 0 004.956-5.045C28.677 20.804 30 17.65 30 14.223a14.386 14.386 0 00-1.062-5.44 14.226 14.226 0 00-3.034-4.613 14 14 0 00-4.544-3.084A13.842 13.842 0 0015.998 0z"/><path fill="#fff" fill-rule="evenodd" d="M16 6.051c-4.444 0-8.045 3.653-8.045 8.159s3.601 8.158 8.044 8.158c4.443 0 8.045-3.652 8.045-8.158 0-4.506-3.602-8.159-8.045-8.159zM7.243 14.21c0-4.904 3.92-8.88 8.755-8.88 4.836 0 8.756 3.976 8.756 8.88 0 4.904-3.92 8.879-8.755 8.879-4.836 0-8.756-3.975-8.756-8.88z" clip-rule="evenodd"/><path fill="#fff" d="M20.082 10.955a5.174 5.174 0 00-3.299-1.95V5.862l2.51-1.425a10.033 10.033 0 013.42 2.01c.017.978.033 1.959.048 2.94l-2.679 1.568z"/><path fill="#fff" d="M19.32 4.757a9.782 9.782 0 013.11 1.828c.015.88.03 1.76.043 2.642l-2.326 1.363a5.447 5.447 0 00-3.08-1.827V6.03l2.252-1.274zm-.058-.629l-2.764 1.566V9.26a4.85 4.85 0 011.975.65 4.923 4.923 0 011.531 1.423l3.043-1.782-.052-3.235-.007-.008a10.423 10.423 0 00-3.718-2.184l-.008.004zm1.562 12.023c.48-1.23.487-2.598.02-3.832l2.694-1.579 2.451 1.473a10.373 10.373 0 01-.007 4.038L23.51 17.73l-2.685-1.579z"/><path fill="#fff" d="M23.536 11.075l2.2 1.321a10.183 10.183 0 01-.007 3.673l-.53.316-.736.432-.377.227-.577.343-2.332-1.368a5.66 5.66 0 00.011-3.572l2.344-1.372m0-.67l-3.046 1.79a5.05 5.05 0 01-.021 4.079l3.046 1.784 1.24-.74 1.483-.886a10.7 10.7 0 00.008-4.405l-2.7-1.624-.01.003zm-6.749 12.148v-3.141a5.175 5.175 0 003.27-1.906l2.685 1.573-.026 1.297-.033 1.632a10.07 10.07 0 01-3.376 1.975l-2.52-1.43z"/><path fill="#fff" d="M20.11 17.874l2.335 1.366-.01.433-.014.692c0 .2-.01.53-.017.865 0 .226-.009.454-.013.641a9.717 9.717 0 01-1.421 1.016 9.773 9.773 0 01-1.65.779l-1.158-.66-1.095-.622v-2.73a5.443 5.443 0 003.043-1.78m-.142-.747a4.925 4.925 0 01-1.521 1.392 4.853 4.853 0 01-1.949.64v3.564l2.77 1.574a10.381 10.381 0 003.686-2.162l.035-1.757.031-1.47-3.048-1.784-.005.003zm-7.258 6.86a10.072 10.072 0 01-3.372-1.965l-.033-1.633c-.009-.376-.019-.865-.026-1.297l2.684-1.576a5.18 5.18 0 003.269 1.899v3.138l-2.522 1.434z"/><path fill="#fff" d="M11.9 17.887a5.466 5.466 0 003.05 1.771v2.726l-2.274 1.287a9.797 9.797 0 01-3.064-1.784c0-.193 0-.404-.011-.614-.008-.313-.013-.629-.019-.892 0-.326-.016-.739-.023-1.128l2.334-1.366m.142-.745l-3.043 1.783.029 1.47.035 1.76c.544.491 1.138.923 1.771 1.287.607.354 1.248.644 1.913.865l2.779-1.577v-3.57a4.853 4.853 0 01-1.954-.632 4.923 4.923 0 01-1.528-1.386h-.002zm-6.02-.888a10.601 10.601 0 01-.008-4.044l1.443-.864 1.02-.614 2.69 1.57a5.352 5.352 0 00.02 3.865L8.499 17.73l-2.484-1.476z"/><path fill="#fff" d="M8.473 11.062l2.34 1.37a5.648 5.648 0 00.016 3.604L8.501 17.4l-1.072-.64-1.165-.688a10.189 10.189 0 01-.166-2.058c.013-.543.068-1.084.166-1.618l1.332-.801.878-.53m0-.668c-.905.545-1.813 1.09-2.716 1.635a10.915 10.915 0 00.009 4.41l2.736 1.632 3.037-1.786a5.049 5.049 0 01-.017-4.108L8.47 10.393l.004.004zm.774-1.028l.021-1.304c0-.346.02-1.192.027-1.635 1-.888 2.164-1.567 3.424-1.996l2.516 1.428v3.14a5.162 5.162 0 00-3.307 1.941L9.248 9.37z"/><path fill="#fff" d="M12.692 4.748l1.163.66 1.096.624v2.726a5.452 5.452 0 00-3.087 1.814L9.533 9.21v-.404c0-.288.008-.576.011-.73 0-.315.019-1.046.026-1.508a9.677 9.677 0 013.122-1.82m.059-.63a10.29 10.29 0 00-3.736 2.186c0 .383-.02 1.378-.028 1.761 0 .307-.017 1.01-.024 1.473l3.042 1.78A4.926 4.926 0 0113.541 9.9a4.85 4.85 0 011.978-.644V5.694L12.751 4.12z"/></g><defs><clipPath id="clip0_3646_46141"><path fill="#fff" d="M0 0h28v32H0z" transform="translate(2)"/></clipPath></defs></svg>
